X:1
T:PROMENADE
T:PROMENADE
%%score { 1 | 2 }
L:1/8
Q:1/4=104
M:5/4
K:C
V:1 treble nm="Piano" snm="Pno."
V:2 bass 
V:1
"^Moderato non tanto, pesamente \n\n"!f! [^G,^G]2 [^F,^F]2 [B,B]2 [^C^c][F^f] [^D^d]2 || %1
[M:6/4] [^C^c][^F^f] [^D^d]2 [B,B]2 [Cc]2 [^G,^G]2 [^F,F]2 || %2
[M:5/4] z4 [^FB^d^f]2 [^CF^A^c]2 [FBdf]2 || %3
[M:6/4] [^A^c^f^a]2 [B^dfb]2 [dfb^d']2 [ce^g^c']2 [egc'e']2 [fac'^f']2 || %4
[M:5/4] [^F^f]2 [^G^g]2 [^C^c]2 [Ff][Gg] [Cc]2 || %5
[M:6/4] [^G^g][^A^a] [^F^f]2 [f^f']2 [^d^d']2 [^c^c'][Bb] [Ff]2 || %6
[M:5/4] ^F2 ^G2[Q:1/4=96]"_-""_dimin.     e     ritard." ^C2[Q:1/4=92]"_-" F[Q:1/4=88]"_-"G[Q:1/4=84]"_-" C2 || %7
[M:4/4][Q:1/4=80]"_-" z2[Q:1/4=76]"_-" z2[Q:1/4=72]"_-" ^F[Q:1/4=68]"_-"^G[Q:1/4=64]"_-" ^C[Q:1/4=60]"_-" z |] %8
V:2
 z4 [^D,,,^D,,]2 [^A,,,^A,,]2 [B,,,B,,]2 || %1
[M:6/4] [^A,,,^A,,]2 [B,,,B,,]2 [^D,,,^D,,]2 [E,,,E,,]2 [^E,,,^E,,]2 [^F,,,^F,,]2 || %2
[M:5/4] [^G,,,^G,,]2 [^F,,,^F,,]2 [B,,,B,,]2 [^C,,^C,][F,,^F,] [^D,,^D,]2 || %3
[M:6/4] [^C,,^C,][^F,,^F,] [^D,,^D,]2 [B,,,B,,]2 [C,,C,]2 [^G,,,^G,,]2 [^F,,,F,,]2 || %4
[M:5/4] z4 [^E,,^E,]4 [=E,,=E,]2- ||[M:6/4] [E,,E,]2 [^D,,^D,]4- [D,,D,]2 [^E,,^E,]2 [^F,,^F,]2 || %6
[M:5/4] ^F,2 ^G,2 ^C,2 F,G, C,2 ||[M:4/4] z8 |] %8

